PortableApps/LibreOfficePortable/App/libreoffice/help/media/icon-themes/cmd/sc_solverdialog.svg

<svg viewBox="0 0 16 16" xmlns="http://www.w3.org/2000/svg"><path d="m8 0a8 8 0 0 0 -8 8 8 8 0 0 0 8 8 8 8 0 0 0 .3222656-.015625 5.5 5.5 0 0 1 -2.3222656-4.484375 5.5 5.5 0 0 1 5.5-5.5 5.5 5.5 0 0 1 4.488281 2.3339844 8 8 0 0 0 .011719-.3339844 8 8 0 0 0 -8-8z" fill="#808080"/><path d="m8 2c-2.210001 0-4 1.9373333-4 4h2c0-1.0266666.9-2.1328125 2-2.1328125s2 .8385678 2 1.8652344c0 .0933101-.028447.1787244-.0449219.2675781h1.5449219.470703c.010874-.0890238.029297-.1759279.029297-.2675781 0-2.0626667-1.79-3.7324219-4-3.7324219z" fill="#fff"/><path d="m11.5 7a4.5 4.5 0 0 0 -4.5 4.5 4.5 4.5 0 0 0 4.5 4.5 4.5 4.5 0 0 0 4.5-4.5 4.5 4.5 0 0 0 -4.5-4.5zm0 1a3.5 3.5 0 0 1 3.5 3.5 3.5 3.5 0 0 1 -3.5 3.5 3.5 3.5 0 0 1 -3.5-3.5 3.5 3.5 0 0 1 3.5-3.5z" fill="#4d82b8"/><circle cx="11.5" cy="11.5" fill="#fff" r="3.5"/><path d="m10 14 4-2.5-4-2.5z" fill="#4d82b8" fill-rule="evenodd"/></svg>

<svg viewBox="0 0 16 16" xmlns="http://www.w3.org/2000/svg">
  <path
     style="fill:#808080"
     d="M 8 0 A 8 8 0 0 0 0 8 A 8 8 0 0 0 8 16 A 8 8 0 0 0 8.3222656 15.984375 A 5.5 5.5 0 0 1 6 11.5 A 5.5 5.5 0 0 1 11.5 6 A 5.5 5.5 0 0 1 15.988281 8.3339844 A 8 8 0 0 0 16 8 A 8 8 0 0 0 8 0 z "
     />
  <path
     style="fill:#ffffff"
     d="M 8 2 C 5.789999 2 4 3.9373333 4 6 L 6 6 C 6 4.9733334 6.9 3.8671875 8 3.8671875 C 9.1 3.8671875 10 4.7057553 10 5.7324219 C 10 5.825732 9.971553 5.9111463 9.9550781 6 L 11.5 6 L 11.970703 6 C 11.981577 5.9109762 12 5.8240721 12 5.7324219 C 12 3.6697552 10.21 2 8 2 z "
     />
  <path
     style="fill:#4d82b8"
     d="M 11.5,7 A 4.5,4.5 0 0 0 7,11.5 4.5,4.5 0 0 0 11.5,16 4.5,4.5 0 0 0 16,11.5 4.5,4.5 0 0 0 11.5,7 Z m 0,1 A 3.5,3.5 0 0 1 15,11.5 3.5,3.5 0 0 1 11.5,15 3.5,3.5 0 0 1 8,11.5 3.5,3.5 0 0 1 11.5,8 Z"
     />
  <circle
     style="fill:#ffffff"
     cx="11.5"
     cy="11.5"
     r="3.5"
     id="circle4" />
  <path
     style="fill:#4d82b8;fill-rule:evenodd"
     d="M 10,14 14,11.5 10,9 Z"
     />
</svg>
